images_sukapura_svg/cmd/sc_showdependents.svg

<svg viewBox="0 0 16 16" xmlns="http://www.w3.org/2000/svg" xmlns:xlink="http://www.w3.org/1999/xlink"><linearGradient id="a" gradientUnits="userSpaceOnUse" x1="91" x2="91" y1="15" y2="-5"><stop offset="0" stop-color="#0040dd"/><stop offset="1" stop-color="#0a84ff"/></linearGradient><linearGradient id="b" gradientUnits="userSpaceOnUse" x1="5" x2="5" xlink:href="#a" y1="8" y2="2"/><linearGradient id="c" gradientUnits="userSpaceOnUse" x1="4.993822" x2="5" xlink:href="#a" y1="14.068125" y2="8"/><path d="m9 0v1 5h1 2 4v-6zm1 1h1 4v4h-3-2zm-10 4v6h5.8789062.1210938v-6h-1zm1 1h3.8789062.1210938v4h-.1210938-3.8789062zm8 4v5.5.5h7v-6h-3.5-.5-2zm1 1h2 .5 2.5v4h-4-1z" fill="#98989d"/><path d="m10 1v4h2 3v-4h-3zm-9 5v4h3.8789062.1210938v-4h-.1210938zm9 5v4h1 1 3v-4h-3z" fill="#fff"/><path d="m9 .99414062v.00585938 5h.1289062l.2246094-.2246094.2246094.2246094h.421875 2 .005859v-4a1.005569 1.005569 0 0 0 -1.005859-1.00585938zm-3.1289062 4.00585938-1.4238282 1.4238281c-.4332524.4193061-.544343 1.0714693-.3671875 1.5761719-.1771555.5047026-.0660649 1.1568658.3671875 1.5761719l1.4238282 1.4238281h.0078124.1210938v-6zm3.1289062 5v5.005859h2a1.005569 1.005569 0 0 0 1.005859-1.005859v-4h-.005859-2-.421875l-.2246094.224609-.2246094-.224609z" fill="#fff" fill-opacity=".784314"/><path d="m5.4550781 8c-.4212423.0324478-.6214322.5507473-.3085937.8535156l3.5 3.5000004-1.6464844 1.646484h4v-4l-1.6464844 1.646484-3.5-3.4999996c-.0871442-.0900673-.2057156-.1389222-.3300781-.1464844z" fill="url(#c)"/><path d="m7 2 1.6464844 1.6464844-3.5 3.5c-.3128385.3027683-.1126486.8210678.3085937.8535156l.3984375.1464844c-.0871442-.0900673-.2057156-.1389222-.3300781-.1464844.1243625-.0075622.2429339-.0564171.3300781-.1464844l3.5-3.5 1.6464844 1.6464844v-4z" fill="url(#b)"/></svg>

<?xml version="1.0" encoding="UTF-8" standalone="no"?>
<svg
   xmlns:dc="http://purl.org/dc/elements/1.1/"
   xmlns:cc="http://creativecommons.org/ns#"
   xmlns:rdf="http://www.w3.org/1999/02/22-rdf-syntax-ns#"
   xmlns:svg="http://www.w3.org/2000/svg"
   xmlns="http://www.w3.org/2000/svg"
   xmlns:xlink="http://www.w3.org/1999/xlink"
   xmlns:sodipodi="http://sodipodi.sourceforge.net/DTD/sodipodi-0.dtd"
   xmlns:inkscape="http://www.inkscape.org/namespaces/inkscape"
   viewBox="0 0 16 16"
   version="1.1"
   id="svg8"
   sodipodi:docname="sc_showdependents.svg"
   inkscape:version="0.92.4 (unknown)">
  <metadata
     id="metadata14">
    <rdf:RDF>
      <cc:Work
         rdf:about="">
        <dc:format>image/svg+xml</dc:format>
        <dc:type
           rdf:resource="http://purl.org/dc/dcmitype/StillImage" />
        <dc:title></dc:title>
      </cc:Work>
    </rdf:RDF>
  </metadata>
  <defs
     id="defs12">
    <linearGradient
       id="a"
       gradientUnits="userSpaceOnUse"
       x1="91"
       x2="91"
       y1="15"
       y2="-5">
      <stop
         offset="0"
         stop-color="#0040dd"
         id="stop2" />
      <stop
         offset="1"
         stop-color="#0a84ff"
         id="stop4" />
    </linearGradient>
    <linearGradient
       inkscape:collect="always"
       xlink:href="#a"
       id="linearGradient877"
       x1="5"
       y1="8"
       x2="5"
       y2="2"
       gradientUnits="userSpaceOnUse" />
    <linearGradient
       inkscape:collect="always"
       xlink:href="#a"
       id="linearGradient885"
       x1="4.9938221"
       y1="14.068125"
       x2="5"
       y2="8"
       gradientUnits="userSpaceOnUse" />
  </defs>
  <sodipodi:namedview
     pagecolor="#ffffff"
     bordercolor="#666666"
     borderopacity="1"
     objecttolerance="10"
     gridtolerance="10"
     guidetolerance="10"
     inkscape:pageopacity="0"
     inkscape:pageshadow="2"
     inkscape:window-width="1360"
     inkscape:window-height="714"
     id="namedview10"
     showgrid="true"
     inkscape:pagecheckerboard="true"
     inkscape:snap-global="true"
     inkscape:zoom="10.429825"
     inkscape:cx="7.127961"
     inkscape:cy="10.624161"
     inkscape:window-x="0"
     inkscape:window-y="28"
     inkscape:window-maximized="1"
     inkscape:current-layer="svg8">
    <inkscape:grid
       type="xygrid"
       id="grid821" />
  </sodipodi:namedview>
  <path
     d="M 9 0 L 9 1 L 9 6 L 10 6 L 12 6 L 16 6 L 16 0 L 9 0 z M 10 1 L 11 1 L 15 1 L 15 5 L 12 5 L 10 5 L 10 1 z M 0 5 L 0 11 L 5.8789062 11 L 6 11 L 6 5 L 5 5 L 0 5 z M 1 6 L 4.8789062 6 L 5 6 L 5 10 L 4.8789062 10 L 1 10 L 1 6 z M 9 10 L 9 15.5 L 9 16 L 16 16 L 16 10 L 12.5 10 L 12 10 L 10 10 L 9 10 z M 10 11 L 12 11 L 12.5 11 L 15 11 L 15 15 L 11 15 L 10 15 L 10 11 z "
     id="path2"
     style="fill:#98989d;fill-opacity:1;stroke:none" />
  <path
     d="M 10 1 L 10 5 L 12 5 L 15 5 L 15 1 L 12 1 L 10 1 z M 1 6 L 1 10 L 4.8789062 10 L 5 10 L 5 6 L 4.8789062 6 L 1 6 z M 10 11 L 10 15 L 11 15 L 12 15 L 15 15 L 15 11 L 12 11 L 10 11 z "
     id="path4"
     style="stroke:none;fill:#ffffff;fill-opacity:1" />
  <path
     style="fill:#ffffff;fill-opacity:0.78431374"
     d="M 9 0.99414062 L 9 1 L 9 6 L 9.1289062 6 L 9.3535156 5.7753906 L 9.578125 6 L 10 6 L 12 6 L 12.005859 6 L 12.005859 2 A 1.005569 1.005569 0 0 0 11 0.99414062 L 9 0.99414062 z M 5.8710938 5 L 4.4472656 6.4238281 C 4.0140132 6.8431342 3.9029226 7.4952974 4.0800781 8 C 3.9029226 8.5047026 4.0140132 9.1568658 4.4472656 9.5761719 L 5.8710938 11 L 5.8789062 11 L 6 11 L 6 5 L 5.8710938 5 z M 9 10 L 9 15.005859 L 11 15.005859 A 1.005569 1.005569 0 0 0 12.005859 14 L 12.005859 10 L 12 10 L 10 10 L 9.578125 10 L 9.3535156 10.224609 L 9.1289062 10 L 9 10 z "
     id="path845" />
  <path
     d="M 5.4550781,8 C 5.0338358,8.0324478 4.8336459,8.5507473 5.1464844,8.8535156 l 3.5,3.5000004 L 7,14 h 4 v -4 l -1.6464844,1.646484 -3.5,-3.4999996 C 5.7663714,8.0564171 5.6478,8.0075622 5.5234375,8 Z"
     id="path6"
     inkscape:connector-curvature="0"
     style="fill:url(#linearGradient885);fill-opacity:1"
     sodipodi:nodetypes="cccccccccc" />
  <path
     id="path869"
     d="m 7,2 1.6464844,1.6464844 -3.5,3.5 C 4.8336459,7.4492527 5.0338358,7.9675522 5.4550781,8 L 5.8535156,8.1464844 C 5.7663714,8.0564171 5.6478,8.0075622 5.5234375,8 5.6478,7.9924378 5.7663714,7.9435829 5.8535156,7.8535156 l 3.5,-3.5 L 11,6 V 2 Z"
     inkscape:connector-curvature="0"
     style="fill:url(#linearGradient877);fill-opacity:1"
     sodipodi:nodetypes="ccccccccccc" />
</svg>
